X: 1
T: las Bravas e las Laidas
R: bourree 3
S: Qu\'ebec City workshop, from Betsy Hooper
M: 3/8
L: 1/16
K: Cdor
G2 |\
c=B c2 d2 | e2 d2 g2 | ga g2 f2 | d2 e2 d2 |\
c=B c2 d2 | e2 d2 g2 | ga g2 f2 | d4 :|
|: g2 |\
fd e2 c2 | c=B c2 d2 | e2 d2 g2 |\
fd e2 c2 | =Bc d2 B2 | c4 :|
